packages/kaspersky-hexa-ui-icons/src/iconsSVGs/48/AppLayout.svg

<svg xmlns="http://www.w3.org/2000/svg" width="48" height="48" fill="none" viewBox="0 0 48 48"><path fill="currentColor" fill-rule="evenodd" d="M0 3v42h48V3zm46 2v4H2V5zM2 43V11h44v32zm2-17h40V13H4zm2-11h36v9H6zM4 41h12V28H4zm2-11h8v9H6zm26 11h12V28H32zm2-11h8v9h-8zM18 41h12V28H18zm2-11h8v9h-8zM45 8h-2V6h2zm-4 0h-2V6h2z" clip-rule="evenodd"/></svg>

<svg width="48" height="48" viewBox="0 0 48 48" fill="none" xmlns="http://www.w3.org/2000/svg">
<path fill-rule="evenodd" clip-rule="evenodd" d="M0 3V45H48V3H0ZM46 5V9H2V5H46ZM2 43V11H46V43H2ZM4 26H44V13H4V26ZM6 15H42V24H6V15ZM4 41H16V28H4V41ZM6 30H14V39H6V30ZM32 41H44V28H32V41ZM34 30H42V39H34V30ZM18 41H30V28H18V41ZM20 30H28V39H20V30ZM45 8H43V6H45V8ZM41 8H39V6H41V8Z"  fill="currentColor"/>
</svg>
